X:136
T:Cunningham's March
R:double jig
C: 2007, 2010 L.E. McCullough 
M:6/8
L:1/8
K:G
z3 z2F|: ~G3 Bdg | (3efg e edB | ~G3 Bdg | (3efg A B2A |
~G3 Bdg  | (3efg e edB | dBd gfe |1 edB A2F:|2 edB A2A|]
|: BEE c3 | BdB BAG | BEB edc | BdA  B2A |
[1 BEE c3 | BdB BAG | AGA AGF | DFG A3:| 
[2 BEB edB | fef g2e | dBd gfe | edB A2F|]
<end>
<start>
